Default.style/playground.svg

<svg width="32" height="32" xmlns="http://www.w3.org/2000/svg"><path d="M24 31.049c-4.379-3.109-3.604-3.879-6-6.945v-4.473a8.805 8.805 0 0 1 2 1.869c2.396 3.066 1.621 3.834 6 6.943 1.834 1.303 6 .869 6 .869v2.604s-6.166.436-8-.867ZM15 32V12h2v20h-2ZM2 10H0L8.5 0 17 10H2Zm0 5v17H0V12h2v3Zm4 3h8.001v12h-6v2h-2v-2h-3v-2h3v-2h-3v-2h3v-2h-3v-2h3L6 18Z" fill="#888" fill-rule="evenodd"/></svg>

<?xml version="1.0" encoding="UTF-8" standalone="no"?>
<svg width="32px" height="32px" viewBox="0 0 32 32" version="1.1" xmlns="http://www.w3.org/2000/svg" xmlns:xlink="http://www.w3.org/1999/xlink" xmlns:sketch="http://www.bohemiancoding.com/sketch/ns">
    <!-- Generator: Sketch 3.2.2 (9983) - http://www.bohemiancoding.com/sketch -->
    <title>playground</title>
    <desc>Created with Sketch.</desc>
    <defs></defs>
    <g id="p" stroke="none" stroke-width="1" fill="none" fill-rule="evenodd" sketch:type="MSPage">
        <g id="playground" sketch:type="MSLayerGroup" fill="#888888">
            <path d="M24,31.049 C19.621,27.94 20.396,27.17 18,24.104 L18,19.631 C18.697,20.106 19.381,20.708 20,21.5 C22.396,24.566 21.621,25.334 26,28.443 C27.834,29.746 32,29.312 32,29.312 L32,31.916 C32,31.916 25.834,32.352 24,31.049 L24,31.049 Z M15,32 L15,18 L15,16 L15,12 L17,12 L17,15 L17,19.028 L17,23.049 L17,27 L17,32 L16,32 L15,32 L15,32 Z M2,10 L0,10 L8.5,0 L17,10 L15,10 L2,10 L2,10 Z M2,15 L2,20 L2,22 L2,24 L2,26 L2,28 L2,30 L2,32 L0,32 L0,30 L0,28 L0,26 L0,24 L0,22 L0,20 L0,12 L2,12 L2,15 L2,15 Z M6,18 L11.938,18 L14.001,18 L14.001,30 L8.001,30 L8.001,32 L6.001,32 L6.001,30 L5.001,30 L3.001,30 L3.001,28 L6.001,28 L6.001,26 L3.001,26 L3.001,24 L6.001,24 L6.001,22 L3.001,22 L3.001,20 L6.001,20 L6,18 L6,18 Z" id="Shape" sketch:type="MSShapeGroup"></path>
        </g>
    </g>
</svg>
